!!!!SEGMENT: pl-kk--kk-i-358--001_maxylewicz-wincenty--rorate-caeli.krn
!!!cenid: 17xx:2047
!!!COM: Maxylewicz, Wincenty
!!!COM-rismID: pe30105799
!!!CDT: ~1685-1745/01/24
!!!CNT: Polish
!!!OTL: Rorate caeli
!!!PDT:
!!!AGN: Sacred
!!!YEC: Copyright 2022 Narodowy Instytut Fryderyka Chopina (https://polishscores.org)
!!!YEM: License CC-BY-4.0 (https://creativecommons.org/licenses/by/4.0)
!!!SMS-siglum: PL-Kk
!!!SMS-shelfmark: Kk.I.358
!!!SMS-shelfwork: 001 W
!!!SMS-variant:
!!!SMS-altvar:
!!!NIFC-rismSourceID: 1001144439
!!!NIFC-rismChildID: 1001144439
!!!NIFC-islandoraID: pl-kk:40679
!!!URL-pdf-islandora: https://repozytorium.nifc.pl/islandora/object/pl-kk%3A40679/datastream/PDF/view
!!!URL-scan: https://polish.musicsources.pl/pl/lokalizacje/galeria/rekopisy/7131/1 @EN{Scan on Polish Music Sources Website} @PL{Skany w portalu Dziedzictwo Muzyki Polskiej w otwartym dostępie}
!!!IIIF:
!!!ONB-nifc: UWAGA: utwory w zbiorze: 1. Rorate caeli (od skanu 0001), 2. Rorate caeli (od skanu 0011)
!!!AIN: 1 alto 2 empty 1 tenor 1 vox
!!!key:
**kern	**text	**kern	**text	**kern	**text	**kern	**text	**kern	**text
*part5	*	*part4	*	*part3	*	*part2	*	*part1	*
*staff5	*	*staff4	*	*staff3	*	*staff2	*	*staff1	*
*Iempty	*	*Iempty	*	*Itenor	*	*Ialto	*	*Ivox	*
*I"Baſso Ripieno.	*	*I"Basſo.	*	*I"Tenore	*	*I"Alto.	*	*I"Canto.	*
*I'B rip	*	*I'B	*	*I'T	*	*I'A	*	*I'C	*
*clefF4	*	*clefF4	*	*clefC4	*	*clefC3	*	*clefC1	*
*k[]	*	*k[]	*	*k[]	*	*k[]	*	*k[]	*
*C:	*	*C:	*	*C:	*	*C:	*	*C:	*
*M2/2	*	*M2/2	*	*M2/2	*	*M2/2	*	*M2/2	*
*met(c|)	*	*met(c|)	*	*met(c|)	*	*met(c|)	*	*met(c|)	*
*MM200	*	*MM200	*	*MM200	*	*MM200	*	*MM200	*
=1	=1	=1	=1	=1	=1	=1	=1	=1	=1
*	*	*	*	*	*	*2\right	*	*	*
!LO:TX:a:Bi:t=à Capella	!	!	!	!	!	!LO:TX:a:Bi:t=S.	!	!LO:TX:b:Bi:t=Rorate.	!
!	!	!	!	!LO:TX:a:t=P:problem=w źródle oznaczenie utworu [2.]	!	!LO:TX:a:t=P:problem=w źródle oznaczenie utworu [2.]	!	!LO:TX:a:t=P:problem=w źródle oznaczenie utworu [2.]	!
!LO:TX:a:t=P:problem=w źródle oznaczenie utworu [2.]	!	!LO:TX:a:t=P:problem=w źródle oznaczenie utworu [2.]	!	!	!	!	!	!	!
!LO:TX:t=P:problem=ozdobna litera R na początku pięciolinii	!	!	!	!	!	!	!	!	!
!	!	!	!	!	!	!LO:TX:t=P:problem=w źródle oznaczenie metryczne 2	!	!LO:TX:t=P:problem=w źródle oznaczenie metryczne 2	!
!	!	!LO:TX:t=P:problem=w źródle oznaczenie metryczne 2	!	!LO:TX:t=P:problem=w źródle oznaczenie metryczne 2	!	!	!	!	!
00r	.	00r	.	1r	.	1c	Ro-	00r	.
=2	=2	=2	=2	=2	=2	=2	=2	=2	=2
*	*	*	*	*2\right	*	*	*	*	*
.	.	.	.	1G	Ro-	1d	-ra-	.	.
=3	=3	=3	=3	=3	=3	=3	=3	=3	=3
.	.	.	.	1A	-ra-	(>4c\	-te	.	.
.	.	.	.	.	.	4d\)	.	.	.
.	.	.	.	.	.	(>4e\	.	.	.
.	.	.	.	.	.	4f\)	.	.	.
=4	=4	=4	=4	=4	=4	=4	=4	=4	=4
.	.	.	.	2G/	-te	(>2.g\	Cae-	.	.
.	.	.	.	4A/	.	.	.	.	.
.	.	.	.	4B\	.	4f\)	.	.	.
=5	=5	=5	=5	=5	=5	=5	=5	=5	=5
*2\right	*	*2\right	*	*	*	*	*	*	*
!	!	!	!	!	!	!LO:TX:t=P:global:problem=kreska oddechu na różnych liniach [rozdzielacz słów / znak oddechu]	!	!	!
1C	Ro-	1C	Ro-	2.c\	Cae-	2e,<\	-li	0r	.
.	.	.	.	.	.	2g\	de-	.	.
.	.	.	.	4c\	-li	.	.	.	.
=6	=6	=6	=6	=6	=6	=6	=6	=6	=6
1D	-ra-	1D	-ra-	2A/	de-	1f	-su-	.	.
.	.	.	.	2B\	.	.	.	.	.
=7	=7	=7	=7	=7	=7	=7	=7	=7	=7
*	*	*	*	*	*	*	*	*2\right	*
!LO:TX:t=P:global:problem=kreska oddechu na różnych liniach [rozdzielacz słów / znak oddechu]	!	!	!	!	!	!	!	!	!
4C,</	-te	4C/	-te	2c\	.	1e	-per	2cc\	et
*	*ij	*	*ij	*	*	*	*	*	*
4D/	Ro-	4D/	Ro-	.	.	.	.	.	.
4E\	-ra-	4E/	-ra-	[<2G/	.	.	.	4b\	nu-
4F\	-te	4F/	-te	.	.	.	.	4a\	-bes
*	*Xij	*	*Xij	*	*	*	*	*	*
=8	=8	=8	=8	=8	=8	=8	=8	=8	=8
*	*	*2\left	*	*	*	*	*	*	*
!	!	!	!	!LO:N:xstem:cue	!	!	!	!	!
2.G\	Cae-	2.G\	Cae-	4G/]	.	1r	.	2b\	plu-
.	.	.	.	4A/	.	.	.	.	.
.	.	.	.	[>2B\	.	.	.	2b\	-ant
4F\	.	4F\	.	.	.	.	.	.	.
*	*	*	*	*	*	*	*	*	*
=9	=9	=9	=9	=9	=9	=9	=9	=9	=9
*	*	*2\right	*	*	*	*	*	*	*
!	!	!LO:TX:t=P:global:problem=kreska oddechu na różnych liniach [rozdzielacz słów / znak oddechu]	!	!	!	!	!	!	!
2E,<\	-li	2E,<\	-li	2B\]	.	2g\	et	2g/	plu-
!	!	!	!	!	!	!LO:SIC:v:o=4f\	!	!	!
2E\	de-	2E\	de-	2G/	-su-	4g\	nu-	2g/	-ant
.	.	.	.	.	.	4e\	-bes	.	.
=10	=10	=10	=10	=10	=10	=10	=10	=10	=10
2A\	.	(>2A\	-su-	2A/	-per	2f\	plu-	2cc\	Ju-
2B\	-su-	2B\)	.	2r	.	2d,<\	-ant	2dd\	.
=11	=11	=11	=11	=11	=11	=11	=11	=11	=11
2c\	-per	2c\	-per	2c\	et	2e\	plu-	1g	-stum
2rF	.	2r	.	4B\	nu-	(>4d\	-ant	.	.
.	.	.	.	4A\	-bes	4c\)	.	.	.
!	!	!	!	!LO:LB:g=original	!	!LO:LB:g=original	!	!	!
=12	=12	=12	=12	=12	=12	=12	=12	=12	=12
!	!	!	!	!	!	!	!	!LO:TX:a:Bi:t=2	!
2G\	et	2G\	et	2B\	plu-	2d\	plu-	0r	.
!LO:SIC:v:o=4F\	!	!LO:SIC:v:o=4F\	!	!	!	!	!	!	!
4G\	nu-	4G\	nu-	2G/	-ant	2e\	-ant	.	.
*custos:F	*	*	*	*	*	*	*	*	*
4E\	-bes	4E\	-bes	.	.	.	.	.	.
!LO:LB:g=original	!	!	!	!	!	!	!	!	!
=13	=13	=13	=13	=13	=13	=13	=13	=13	=13
2F\	plu-	2F\	plu-	2A/	Ju-	2c/	Ju-	.	.
2D\	-ant	2D/	-ant	2B\	-ſtum	2d\	.	.	.
!	!	!LO:LB:g=original	!	!	!	!	!	!	!
=14	=14	=14	=14	=14	=14	=14	=14	=14	=14
*	*ij	*	*	*	*	*	*	*	*
4C/	plu-	(<4C/	plu-	1rF	.	1e	.	2cc\	et
4D/	.	4D/)	.	.	.	.	.	.	.
4E\	-ant	(>4E\	-ant	.	.	.	.	4b\	nu-
4F\	.	4F\)	.	.	.	.	.	4a\	-bes
*	*Xij	*	*	*	*	*	*	*	*
=15	=15	=15	=15	=15	=15	=15	=15	=15	=15
2G\	Ju-	2G\	Ju-	2G/	et	2d,<\	-stum	2b\	plu-
2E\	-stum	2E\	-stum	4G/	nu-	2e\	et	2g/	-ant
.	.	.	.	4G/	-bes	.	.	.	.
=16	=16	=16	=16	=16	=16	=16	=16	=16	=16
1r	.	1r	.	2F/	plu-	2c/	nu-	2.a\	plu-
.	.	.	.	2D/	-ant	2d\	-bes	.	.
.	.	.	.	.	.	.	.	4b\	-ant
!	!	!	!	!	!	!	!	!LO:LB:g=original	!
=17	=17	=17	=17	=17	=17	=17	=17	=17	=17
!	!	!LO:TX:t=P:problem=niejednoznaczny zapis łuku (łuków)	!	!	!	!	!	!	!
(<4C/	et	(>4C/	plu-	4E/	Ju-	1r	.	(>4cc\	plu-
4D/	.	4D\)	.	4F/	.	.	.	4b\)	.
4E/	.	(>4E\	-ant	[<2G/	.	.	.	(>4g\	-ant
4F/)	.	4F\)	.	.	.	.	.	4a\)	.
=18	=18	=18	=18	=18	=18	=18	=18	=18	=18
(>4G\	nu-	(>4G\	plu-	2G/]	.	2g\	et	(>4b\	plu-
4A\)	.	4A\)	.	.	.	.	.	4cc\)	.
4B\	-bes	4B\	-ant	2G/	-stum	4g\	nu-	(>4dd\	-ant
4G\	.	4G\	.	.	.	4g\	-bes	4b\)	.
=19	=19	=19	=19	=19	=19	=19	=19	=19	=19
2.c\	plu-	2.c\	plu-	0r	.	2.e\	plu-	(>4cc\	plu-
.	.	.	.	.	.	.	.	4g\)	.
.	.	.	.	.	.	.	.	(>4a\	-ant
4B,<\	-ant	4B\	-ant	.	.	4d\	-ant	4b\)	.
=20	=20	=20	=20	=20	=20	=20	=20	=20	=20
*	*ij	*	*ij	*	*	*	*	*	*
2A\	plu-	2A\	plu-	.	.	4e\	plu-	2cc\	Ju-
.	.	.	.	.	.	4f#X\	-ant	.	.
!	!	!	!	!	!	!	!	!LO:TX:t=P:global:problem=kreska oddechu na różnych liniach [rozdzielacz słów / znak oddechu]	!
2G\	-ant	2G\	-ant	.	.	[<2g\	Ju-	2b,<\	-ſtum
*	*Xij	*	*Xij	*	*	*	*	*	*
=21	=21	=21	=21	=21	=21	=21	=21	=21	=21
1D	Ju-	1D	Ju-	1rB	.	2g\]	.	2a\	et
.	.	.	.	.	.	2f#X\	.	4dd\	plu-
.	.	.	.	.	.	.	.	4cc\	-ant
!	!	!	!	!	!	!LO:LB:g=original	!	!	!
=22	=22	=22	=22	=22	=22	=22	=22	=22	=22
1GG	-stum	1GG	-stum	2G/	et	2g,<\	-st(um)	(>4b\	plu-
.	.	.	.	.	.	.	.	4g\)	.
!	!	!	!	!	!	!	!LO:MO:mod=plu-	!	!
.	.	.	.	4G/	nu-	4g\	pl-	(>4cc\	-ant
.	.	.	.	4G/	-bes	4g\	-ant	4b\)	.
!LO:LB:g=original	!	!LO:LB:g=original	!	!	!	!	!	!	!
=23	=23	=23	=23	=23	=23	=23	=23	=23	=23
1r	.	1rD	.	2F/	plu-	2a\	Ju-	2a\	Ju-
.	.	.	.	2D/	-ant	2f\	-stum	2b\	.
!	!	!	!	!LO:LB:g=original	!	!	!	!	!
=24	=24	=24	=24	=24	=24	=24	=24	=24	=24
!	!	!	!	!LO:TX:t=P:problem=w źródle niejednoznaczny zapis łuku	!	!	!	!	!
!	!	!	!	!	!	!LO:TX:a:t=P:problem=w źródle kreska taktowa przekreślona ołówkiem	!	!	!
2C/	et	2C/	et	4E/	plu-	1rc	.	1cc	-stum
.	.	.	.	(<4F/	.	.	.	.	.
4BB/	nu-	4BB/	nu-	4G/)	-ant	.	.	.	.
4AA/	-bes	4AA/	-bes	4A/	.	.	.	.	.
!	!	!	!	!	!	!	!	!LO:LB:g=original	!
=25	=25	=25	=25	=25	=25	=25	=25	=25	=25
2BB/	plu-	2BB/	plu-	4D/	plu-	2g\	et	1rg	.
.	.	.	.	4E/	.	.	.	.	.
2GG/	-ant	2GG/	-ant	(<4F/	-ant	4f\	nu-	.	.
.	.	.	.	4G/)	.	4e\	-bes	.	.
=26	=26	=26	=26	=26	=26	=26	=26	=26	=26
!	!	!	!	!	!	!	!	!LO:TX:t=P:problem=tekst dopisany [poprawiony nieczytelny fragment pod tekstem w taktach 26-33]	!
4AA/	et	(<4AA/	plu-	(<4C/	plu-	2f\	plu-	2cc\	et
(<4BB/	.	4BB/)	.	4D/)	.	.	.	.	.
4C/	.	(<4C/	-ant	(<4E/	-ant	2e\	-ant	4cc\	nu-
4D/)	.	4D/)	.	4F/)	.	.	.	4cc\	-bes
=27	=27	=27	=27	=27	=27	=27	=27	=27	=27
(>4E\	nu-	(>4E\	plu-	(>4G\	plu-	1e	Ju-	2b\	plu-
4F\)	.	4F\)	.	4A\)	.	.	.	.	.
(>4G\	-bes	4G\	-ant	(>4B\	-ant	.	.	2g/	-ant
4E\)	.	4E\	.	4c\)	.	.	.	.	.
=28	=28	=28	=28	=28	=28	=28	=28	=28	=28
(>4F\	plu-	(>4F\	plu-	4A\	Ju-	2.c,<\	-stum	1a	Ju-
4G\)	.	4G\)	.	4B\	.	.	.	.	.
(>4A\	-ant	(>4A\	-ant	[<2c\	.	.	.	.	.
4B\)	.	4B\)	.	.	.	4d\	et	.	.
=29	=29	=29	=29	=29	=29	=29	=29	=29	=29
*	*ij	*	*	*	*	*	*	*	*
2.c\	nu-	2.c\	Ju-	2c\]	.	4e\	nu-	1g	-ſtum
.	.	.	.	.	.	4f,<\	-bes	.	.
.	.	.	.	[<2c\	.	2g\	plu-	.	.
4B\	-bes	4B\	.	.	.	.	.	.	.
=30	=30	=30	=30	=30	=30	=30	=30	=30	=30
2A\	plu-	2A\	.	2c\]	.	2c/	-ant	2cc\	plu-
2F\	-ant	2F\	.	[<2d\	.	[<2f\	Ju-	2a\	-ant
*	*Xij	*	*	*	*	*	*	*	*
=31	=31	=31	=31	=31	=31	=31	=31	=31	=31
2G\	Ju-	2G\	.	2d\]	.	2f\]	.	2b\	Ju-
2C/	.	2C/	.	2c\	.	2e\	.	[<2cc\	.
!	!	!LO:LB:g=original	!	!	!	!	!	!	!
=32-	=32-	=32	=32	=32	=32	=32	=32	=32	=32
1GG	.	1GG	.	1d	.	1d	.	2cc\]	.
.	.	.	.	.	.	.	.	2b\	.
!	!	!	!	!LO:LB:g=original	!	!LO:LB:g=original	!	!	!
=33-	=33-	=33	=33	=33	=33	=33	=33	=33	=33
2C/	-stum	2C/	-stum	2G/	stum	2e,<\	-stum	2cc\	-ſtum
!	!	!	!	!	!	!LO:TX:a:B:t=+:rj	!	!	!
2r	.	2r	.	2rF	.	2c/	A-	2r	.
!LO:LB:g=original	!	!	!	!	!	!	!	!	!
=34	=34	=34	=34	=34	=34	=34	=34	=34	=34
00r	.	00r	.	2rF	.	2g\	-pe-	0r	.
.	.	.	.	2G/	a-	2g\	-ri-	.	.
=35	=35	=35	=35	=35	=35	=35	=35	=35	=35
.	.	.	.	2c\	-pe-	(>4e\	-a-	.	.
.	.	.	.	.	.	4d\)	.	.	.
.	.	.	.	2c\	-ri-	4e\	-tur	.	.
.	.	.	.	.	.	4c/	.	.	.
=36	=36	=36	=36	=36	=36	=36	=36	=36	=36
.	.	.	.	(>4B\	-a-	2d\	ter-	1g	A-
.	.	.	.	4A\)	.	.	.	.	.
.	.	.	.	(>4B\	-tur	[<2g\	.	.	.
.	.	.	.	4G\)	.	.	.	.	.
=37	=37	=37	=37	=37	=37	=37	=37	=37	=37
.	.	.	.	1A	ter-	2g\]	.	2.cc\	-pe-
.	.	.	.	.	.	2f#X\	.	.	.
.	.	.	.	.	.	.	.	4cc\	-ri-
!	!	!	!	!	!	!	!	!LO:LB:g=original	!
=38	=38	=38	=38	=38	=38	=38	=38	=38	=38
!	!	!	!	!LO:TX:t=P:global:problem=kreska oddechu na różnych liniach [rozdzielacz słów / znak oddechu]	!	!	!	!	!
0r	.	0r	.	2G,</	-ra	2g,<\	-ra	(>4b\	-a-
.	.	.	.	.	.	.	.	4a\)	.
!	!	!	!	!	!	!	!LO:MO:mod=et	!	!
.	.	.	.	2E/	a-	2g\	er	(>4b\	-tur
.	.	.	.	.	.	.	.	4g\)	.
=39	=39	=39	=39	=39	=39	=39	=39	=39	=39
.	.	.	.	4F/	-pe-	4.fn\	ger-	2a\	ter-
.	.	.	.	4F/	-ri-	.	.	.	.
.	.	.	.	.	.	8f\	-mi-	.	.
.	.	.	.	4G/	-a-	2d\	-net	2b\	.
.	.	.	.	4G/	-tur	.	.	.	.
=40	=40	=40	=40	=40	=40	=40	=40	=40	=40
1C	a-	1C	a-	4E/	ter-	2e\	Sal-	1cc	.
.	.	.	.	4F/	.	.	.	.	.
.	.	.	.	4G/	.	2e\	-va-	.	.
.	.	.	.	4A/	.	.	.	.	.
=41	=41	=41	=41	=41	=41	=41	=41	=41	=41
2.G\	-pe-	2.G\	-pe-	4B\	.	2d\	-to-	1b	-ra
.	.	.	.	4c\	.	.	.	.	.
.	.	.	.	4d\	.	[<2G/	.	.	.
!	!	!LO:SIC:v:o=4G\	!	!	!	!	!	!	!
4F\	-ri-	4F\	-ri-	4B\	.	.	.	.	.
=42	=42	=42	=42	=42	=42	=42	=42	=42	=42
(>4E\	-a-	(>4E\	-a-	2.c\	.	2G/]	.	0r	.
4D\)	.	4D\)	.	.	.	.	.	.	.
(>4E\	-tur	(>4E\	-tur	.	.	2g\	.	.	.
4C\)	.	4C/)	.	4B\	.	.	.	.	.
!	!	!	!	!LO:LB:g=original	!	!LO:LB:g=original	!	!	!
=43	=43	=43	=43	=43	=43	=43	=43	=43	=43
2F\	ter-	(>2F\	ter-	2A/	.	2a\	.	.	.
2G\	.	2G\)	.	2B\	.	[<2g\	.	.	.
=44	=44	=44	=44	=44	=44	=44	=44	=44	=44
1A	.	1A	.	2c\	.	2g\]	.	1cc	et
.	.	.	.	2A/	.	2f#X\	.	.	.
=45-	=45-	=45	=45	=45	=45	=45	=45	=45	=45
1G	-ra	1G	-ra	2d,<\	-ra	2g,<\	-rem	4.b\	ger-
.	.	.	.	.	.	.	.	8b\	-mi-
.	.	.	.	2G/	et	4B/	Sal-	2g/	-net
.	.	.	.	.	.	4B/	-va-	.	.
=46	=46	=46	=46	=46	=46	=46	=46	=46	=46
1r	.	1r	.	4.F/	ger-	(<2c/	-to-	2a\	Sal-
.	.	.	.	8F/	-mi-	.	.	.	.
.	.	.	.	2D/	-net	2d\)	.	2b\	-va-
=47	=47	=47	=47	=47	=47	=47	=47	=47	=47
1c	et	1c	et	2E/	Sal-	2G/	-rem	1cc	-to-
.	.	.	.	2e\	-va-	2rA	.	.	.
=48-	=48-	=48	=48	=48	=48	=48	=48	=48	=48
4.B\	ger-	4.B\	ger-	2d\	-to-	1g	et	2g/	-rem
!	!	!LO:SIC:v:o=8B\	!	!	!	!	!	!	!
8A\	-mi-	8A\	-mi-	.	.	.	.	.	.
2G\	-net	2G\	-net	2B\	-rem	.	.	2b\	et
=49	=49	=49	=49	=49	=49	=49	=49	=49	=49
2A\	Sal-	2A\	Sal-	1rF	.	4.fn\	ger-	4.cc\	ger-
.	.	.	.	.	.	8f\	-mi-	8cc\	-mi-
2B\	-va-	2B\	-va-	.	.	2d\	-net	2dd\	-net
!	!	!LO:LB:g=original	!	!	!	!	!	!LO:LB:g=original	!
=50	=50	=50	=50	=50	=50	=50	=50	=50	=50
2c\	-to-	2c\	-to-	1c	et	2.e\	Sal-	2.g/	Sal-
2C/	.	2C/	.	.	.	.	.	.	.
.	.	.	.	.	.	4f\	-va-	4a\	-va-
=51-	=51-	=51	=51	=51	=51	=51	=51	=51	=51
2G\	-rem	2G\	-rem	4.B\	ger-	1g	-to-	4b\	-to-
.	.	.	.	.	.	.	.	4cc\	.
.	.	.	.	8B\	-mi-	.	.	.	.
2r	.	2r	.	2G/	-net	.	.	4dd\	.
.	.	.	.	.	.	.	.	4b\	.
!LO:LB:g=original	!	!	!	!	!	!	!	!	!
=52	=52	=52	=52	=52	=52	=52	=52	=52	=52
1rA	.	1r	.	2A/	Sal-	1f	.	2cc\	.
.	.	.	.	2B\	-va-	.	.	[<2dd\	.
=53-	=53-	=53	=53	=53	=53	=53	=53	=53	=53
2r	.	2rBB	.	1c	-to-	1e	.	4dd\]	.
.	.	.	.	.	.	.	.	4g/	.
2C/	et	2C/	et	.	.	.	.	[<2cc\	.
!	!	!	!	!	!	!LO:LB:g=original	!	!	!
=54	=54	=54	=54	=54	=54	=54	=54	=54	=54
2.G\	ger-	2.G\	ger-	1G	-rem	2d\	.	2cc\]	.
.	.	.	.	.	.	[<2g\	.	2b\	.
4F\	-mi-	4F\	-mi-	.	.	.	.	.	.
=55	=55	=55	=55	=55	=55	=55	=55	=55	=55
2E,<\	-net	2E,<\	-net	0r	.	2g\]	.	2.cc\	.
4C/	Sal-	4C/	Sal-	.	.	2e\	.	.	.
4C/	-va-	4C/	-va-	.	.	.	.	4b\	.
=56	=56	=56	=56	=56	=56	=56	=56	=56	=56
2D\	-to-	2D/	-to-	.	.	2f#X\	.	2a\	.
2E\	.	2E\	.	.	.	2g\	-rem	[<2g/	.
!	!	!	!	!LO:LB:g=original	!	!	!	!	!
=57	=57	=57	=57	=57	=57	=57	=57	=57	=57
1D	.	1D	.	1d	et	1r	.	2g/]	.
.	.	.	.	.	.	.	.	2f#X/	.
=58-	=58-	=58	=58	=58	=58	=58	=58	=58	=58
2GG/	-rem	2GG/	-rem	4.B\	ger-	2r	.	1g	-rem
.	.	.	.	8B\	-mi-	.	.	.	.
2rBB	.	2rBB	.	2G/	-net	2g\	et	.	.
=59	=59	=59	=59	=59	=59	=59	=59	=59	=59
0r	.	0r	.	2A/	Sal-	4.fn\	ger-	1rg	.
.	.	.	.	.	.	8f\	-mi-	.	.
.	.	.	.	2B\	-va-	2d\	-net	.	.
=60	=60	=60	=60	=60	=60	=60	=60	=60	=60
.	.	.	.	1c	-to-	2e\	Sal-	1cc	et
.	.	.	.	.	.	2e\	-va-	.	.
=61-	=61-	=61	=61	=61	=61	=61	=61	=61	=61
1G	et	1G	et	2G/	.	2.d\	-to-	4.b\	ger-
.	.	.	.	.	.	.	.	8b\	-mi-
.	.	.	.	2B,<\	-rem	.	.	2g/	-net
.	.	.	.	.	.	4e\	.	.	.
!	!	!	!	!	!	!	!	!LO:LB:g=original	!
=62-	=62-	=62	=62	=62	=62	=62	=62	=62	=62
4.F\	ger-	4.F\	ger-	1d	et	1f	.	2a\	Sal-
!	!	!LO:SIC:v:o=8F\	!	!	!	!	!	!	!
8E\	-mi-	8E-\	-mi-	.	.	.	.	.	.
2D\	-net	2D/	-net	.	.	.	.	2b\	-va-
!	!	!LO:LB:g=original	!	!	!	!	!	!	!
=63	=63	=63	=63	=63	=63	=63	=63	=63	=63
2E\	Sal-	2E\	Sal-	4.G/	ger-	1e	.	1cc	-to-
.	.	.	.	8G/	-mi-	.	.	.	.
2F\	-va-	2F\	-va-	2A/	-net	.	.	.	.
=64	=64	=64	=64	=64	=64	=64	=64	=64	=64
(>1G	-to-	1G	-to-	4B\	Sal-	2d\	.	1b	-rem
.	.	.	.	4c\	.	.	.	.	.
.	.	.	.	4d\	-va-	[<2g\	.	.	.
.	.	.	.	4B\	.	.	.	.	.
=65-	=65-	=65	=65	=65	=65	=65	=65	=65	=65
1A)	.	1A	.	[<1c	-to-	2g\]	.	1rg	.
.	.	.	.	.	.	2f#X\	.	.	.
=66-	=66-	=66	=66	=66	=66	=66	=66	=66	=66
2G,>\	-rem	2G,<\	-rem	2c\]	.	1g	-rem	2re	.
2G\	et	2G\	et	2B\	.	.	.	2b\	et
!LO:LB:g=original	!	!	!	!	!	!LO:LB:g=original	!	!	!
=67	=67	=67	=67	=67	=67	=67	=67	=67	=67
2.c\	ger-	2.c\	ger-	2c\	-rem	2r	.	2.ee\	ger-
.	.	.	.	2r	.	2g\	et	.	.
4B\	-mi-	4B\	-mi-	.	.	.	.	4dd\	-mi-
=68-	=68-	=68	=68	=68	=68	=68	=68	=68	=68
2A,>\	-net	2A,<\	-net	2r	.	2.a\	ger-	2cc,<\	-net
*	*ij	*	*	*	*	*	*	*	*
2E\	et	2E\	et	2e\	et	.	.	4cc\	Sal-
.	.	.	.	.	.	4g\	-mi-	4b\	-va-
=69	=69	=69	=69	=69	=69	=69	=69	=69	=69
2.F\	ger-	2.F\	ger-	2.c\	ger-	[<1f	-net	4a\	-to-
.	.	.	.	.	.	.	.	4b\	.
.	.	.	.	.	.	.	.	4cc\	.
4E\	-mi-	4E\	-mi-	4c\	-mi-	.	.	4a\	.
!	!	!	!	!LO:LB:g=original	!	!	!	!	!
=70-	=70-	=70	=70	=70	=70	=70	=70	=70	=70
2D,</	-net	2D,</	-net	4d\	-net	2f\]	.	2b\	.
.	.	.	.	4c\	.	.	.	.	.
*	*Xij	*	*	*	*	*	*	*	*
4C/	Sal-	4C/	Sal-	4e\	Sal-	2r	.	[<2cc\	.
4C/	-va-	4C/	-va-	4c\	-va-	.	.	.	.
=71	=71	=71	=71	=71	=71	=71	=71	=71	=71
1G	-to-	1G	-to-	1d	-to-	1g	(et)	2cc\]	.
.	.	.	.	.	.	.	.	2b\	.
=72-	=72-	=72	=72	=72	=72	=72	=72	=72	=72
2C,</	-rem	2C,</	-rem	2c\	-rem	4.e\	ger-	1cc,<	-rem
.	.	.	.	.	.	8e\	-mi-	.	.
2c\	et	2c\	et	2e\	et	2c/	-net	.	.
!	!	!LO:LB:g=original	!	!	!	!	!	!	!
=73	=73	=73	=73	=73	=73	=73	=73	=73	=73
4.A\	ger-	4.A\	ger-	2.c\	ger-	2e\	Sal-	[<1cc	et
8A\	-mi-	8A\	-mi-	.	.	.	.	.	.
2E\	-net	2E\	-net	.	.	2g\	-va-	.	.
.	.	.	.	4B\	-mi-	.	.	.	.
=74	=74	=74	=74	=74	=74	=74	=74	=74	=74
2.F\	Sal-	2.F\	Sal-	2A,</	-net	2.a\	-to-	1cc]	.
.	.	.	.	4c\	Sal-	.	.	.	.
4E\	-va-	4E\	-va-	4c\	-va-	4g\	.	.	.
!	!	!	!	!	!	!	!	!LO:LB:g=original	!
=75-	=75-	=75	=75	=75	=75	=75	=75	=75	=75
2D/	-to-	2D/	-to-	2d\	-to-	2f\	.	4.b\	ger-
.	.	.	.	.	.	.	.	8b\	-mi-
2C/	.	2C/	.	2e\	.	2e\	.	2cc\	-net
=76	=76	=76	=76	=76	=76	=76	=76	=76	=76
2BB/	.	2BB/	.	2d\	.	(>4g\	.	4dd\	Sal-
.	.	.	.	.	.	4f\	.	4g/	-va-
2C/	.	2C/	.	2c\	.	4e\	.	[<2cc\	-to-
.	.	.	.	.	.	4f\)	.	.	.
=77-	=77-	=77	=77	=77	=77	=77	=77	=77	=77
1GG	.	1GG	.	1d	.	1g	.	2cc\]	.
.	.	.	.	.	.	.	.	2b\	.
=78-	=78-	=78	=78	=78	=78	=78	=78	=78	=78
*	*	*	*	*custos	*	*custos	*	*	*
!	!	!	!	!LO:TX:a:t=P:problem=w źródle znak custos użyty jako łamanie strony	!	!LO:TX:a:t=P:problem=w źródle znak custos użyty jako łamanie strony	!	!	!
!LO:N:vis=0	!	!	!	!	!	!	!	!	!
1C;>	-rem	1C;>	-rem	1e	-rem	1g	-rem	1cc	-rem
!LO:LB:g=original	!	!LO:PB:g=original	!	!LO:PB:g=original	!	!LO:PB:g=original	!	!LO:PB:g=original	!
=||	=||	=||	=||	=||	=||	=||	=||	=||	=||
*	*	*clefF4	*	*clefC4	*	*clefC3	*	*clefC1	*
*M2/2	*	*M2/2	*	*M2/2	*	*M2/2	*	*M2/2	*
*met(c|)	*	*met(c|)	*	*met(c|)	*	*met(c|)	*	*met(c|)	*
!	!	!	!	!	!	!LO:TX:t=P:problem=ozdobna litera B na początku pięciolinii	!	!LO:TX:t=P:problem=ozdobna litera B na początku pięciolinii	!
!	!	!LO:TX:t=P:problem=ozdobna litera B na początku pięciolinii	!	!LO:TX:t=P:problem=ozdobna litera B na początku pięciolinii	!	!	!	!	!
!	!	!	!	!	!	!	!	!LO:TX:a:Bi:t=4	!
00r	.	00r	.	0r	.	1c	Be-	00r	.
=79	=79	=79	=79	=79	=79	=79	=79	=79	=79
.	.	.	.	.	.	1d	-ne-	.	.
=80	=80	=80	=80	=80	=80	=80	=80	=80	=80
.	.	.	.	2c\	Be-	2.e\	-di-	.	.
.	.	.	.	4c\	-ne-	.	.	.	.
.	.	.	.	4c\	-di-	4f\	.	.	.
=81	=81	=81	=81	=81	=81	=81	=81	=81	=81
.	.	.	.	(>4B\	-xi-	[<1g	-xi-	.	.
.	.	.	.	4A\)	.	.	.	.	.
.	.	.	.	(>4B\	-sti	.	.	.	.
.	.	.	.	4G/)	.	.	.	.	.
=82	=82	=82	=82	=82	=82	=82	=82	=82	=82
00r	.	00r	.	2.A/	Do-	2g\]	.	2cc\	Be-
.	.	.	.	.	.	2f#X\	.	4cc\	-ne-
.	.	.	.	4A/	-mi-	.	.	4cc\	-di-
=83	=83	=83	=83	=83	=83	=83	=83	=83	=83
.	.	.	.	2G/	-ne	1g	-sti	(>4b\	-xi-
.	.	.	.	.	.	.	.	4a\)	.
.	.	.	.	4E/	ter-	.	.	(>4b\	-sti
.	.	.	.	4E/	-ram	.	.	4g/)	.
=84	=84	=84	=84	=84	=84	=84	=84	=84	=84
.	.	.	.	2F/	tu-	4r	.	2.a\	Do-
.	.	.	.	.	.	4c/	be-	.	.
.	.	.	.	2F/	-am	4c/	-ne-	.	.
.	.	.	.	.	.	4d\	-di-	4a\	-mi-
=85	=85	=85	=85	=85	=85	=85	=85	=85	=85
.	.	.	.	1C	be-	(>4e\	-xi-	1g	-ne
.	.	.	.	.	.	4f\)	.	.	.
.	.	.	.	.	.	(>4g\	-sti	.	.
.	.	.	.	.	.	4c\)	.	.	.
=86	=86	=86	=86	=86	=86	=86	=86	=86	=86
1r	.	1rD	.	1D	-ne-	2f\	Do-	1rg	.
.	.	.	.	.	.	4g\	-mi-	.	.
.	.	.	.	.	.	4f\	-ne	.	.
=87	=87	=87	=87	=87	=87	=87	=87	=87	=87
2c\	Be-	2c\	Be-	(>2.E/	-di-	2.e\	ter-	4r	.
.	.	.	.	.	.	.	.	4g/	be-
4c\	-ne-	4c\	-ne-	.	.	.	.	4g/	-ne-
4c\	-di-	4c\	-di-	4F/)	.	4e\	-ram	4a\	-di-
!	!	!	!	!	!	!LO:LB:g=original	!	!	!
=88	=88	=88	=88	=88	=88	=88	=88	=88	=88
(>4B\	-xi-	(>4B\	-xi-	1G	-xi-	2d\	ter-	(>4b\	-xi-
4A\)	.	4A\)	.	.	.	.	.	4cc\)	.
(>4B\	-sti	(>4B\	-sti	.	.	[<2g\	.	(>4dd\	-sti
4G\)	.	4G\)	.	.	.	.	.	4g/)	.
!	!	!	!	!LO:LB:g=original	!	!	!	!	!
=89	=89	=89	=89	=89	=89	=89	=89	=89	=89
2A\	Do-	(<2A\	Do-	2C/	-sti	2g\]	.	2cc\	Do-
4.D/	.	4.D/)	.	2rF	.	2f\	-ram	4b\	-mi-
.	.	.	.	.	.	.	.	4a\	-ne
8D/	-mi-	8D/	-mi-	.	.	.	.	.	.
!	!	!	!	!	!	!	!	!LO:LB:g=original	!
=90	=90	=90	=90	=90	=90	=90	=90	=90	=90
2G\	-ne	2G\	-ne	1rB	.	2f\	tu-	4b\	ter-
.	.	.	.	.	.	.	.	4b\	-ram
4C/	ter-	4C/	ter-	.	.	2e\	-am	2ee\	ter-
4C,</	-ram	4C/	-ram	.	.	.	.	.	.
=91	=91	=91	=91	=91	=91	=91	=91	=91	=91
(>1F	ter-	1F	ter-	4r	.	1r	.	1a	.
.	.	.	.	2c\	a-	.	.	.	.
.	.	.	.	4d\	-ver-	.	.	.	.
=92-	=92-	=92	=92	=92	=92	=92	=92	=92	=92
1E)	.	1E	.	4e\	-ti-	4r	.	2g,</	-ram
.	.	.	.	4f\	.	4G/	Be-	.	.
.	.	.	.	4g\	-sti	4G/	-ne-	[<2cc\	tu-
.	.	.	.	4c\	.	4G/	-di-	.	.
=93-	=93-	=93	=93	=93	=93	=93	=93	=93	=93
2D,<\	-ram	(>2D/	-ram	2f\	ca-	4A/	-xi-	2cc\]	.
.	.	.	.	.	.	4A/	-sti	.	.
2G\	tu-	2G\)	tu-	4f\	-pti-	4B/	Do-	2b\	.
.	.	.	.	4f\	-vi-	4B/	-mi-	.	.
=94	=94	=94	=94	=94	=94	=94	=94	=94	=94
2C/	-am	2C/	-am	4e\	-ta-	2c,</	-ne	2cc\	-am
.	.	.	.	4d\	-tem	.	.	.	.
2rBB	.	2rBB	.	[<2c\	Ja-	4e\	ter-	2r	.
.	.	.	.	.	.	4e\	-ram	.	.
!	!	!LO:LB:g=original	!	!	!	!	!	!	!
=95	=95	=95	=95	=95	=95	=95	=95	=95	=95
*	*	*	*	*	*	*	*ij	*	*
1G	Be-	1G	be-	2c\]	.	2.d\	ter-	0r	.
.	.	.	.	2B\	-cob	.	.	.	.
.	.	.	.	.	.	4e\	-ram	.	.
*	*	*	*	*	*	*	*Xij	*	*
=96-	=96-	=96	=96	=96	=96	=96	=96	=96	=96
2.A\	-ne-	2.A\	-ne-	4r	.	2.f\	tu-	.	.
.	.	.	.	2c\	a-	.	.	.	.
4B\	-di-	4B\	-di-	4d\	-ver-	4d\	-am	.	.
!LO:LB:g=original	!	!	!	!	!	!	!	!	!
=97	=97	=97	=97	=97	=97	=97	=97	=97	=97
*	*	*	*	*	*	*	*^	*	*
[<1c	-xi-	[<1c	-xi-	(>4e\	-ti-	2r	.	.	1cc	be-
.	.	.	.	4f\)	.	.	.	.	.	.
!	!	!	!	!	!	!LO:TX:t=P:global:problem=skreślony tekst zapisany w drugim wersie	!	!	!	!
.	.	.	.	(>4g\	-sti	4g\	be-	[[be-	.	.
.	.	.	.	4e\)	.	8g\	-ne-	-ne-	.	.
.	.	.	.	.	.	8g\	-di-	-di-	.	.
!	!	!	!	!LO:LB:g=original	!	!LO:LB:g=original	!	!	!	!
=98	=98	=98	=98	=98	=98	=98	=98	=98	=98	=98
2c\]	.	2c\]	.	2d\	ca-	(>4f\	-xi-	-xi-	1dd	-ne-
.	.	.	.	.	.	4e\)	.	.	.	.
2B\	-sti	2B\	-sti	4d\	-pti-	(>4f\	-sti	-sti	.	.
.	.	.	.	4d\	-vi-	4g,<\)	.	Cap-	.	.
=99-	=99-	=99	=99	=99	=99	=99	=99	=99	=99	=99
2.c\	Do-	2.c\	Do-	2c\	-ta-	4e\	Do-	-ti-	2.ee\	-di-
.	.	.	.	.	.	8d\	-mi-	-vi-	.	.
.	.	.	.	.	.	8d\	-ne	.	.	.
.	.	.	.	2c\	-tem	4e\	ter-	-ta-	.	.
4c\	-mi-	4c\	-mi-	.	.	4c/	-ram	-tem	4ff\	.
=100-	=100-	=100	=100	=100	=100	=100	=100	=100	=100	=100
1G	-ne	1G	-ne	1r	.	2d\	tu-	Ja-	2gg\	-xi-
.	.	.	.	.	.	[<2g\	.	.	2gg\	-sti
!	!	!	!	!	!	!	!	!	!LO:LB:g=original	!
=101	=101	=101	=101	=101	=101	=101	=101	=101	=101	=101
1rA	.	1r	.	2c\	be-	2g\]	.	.	4.cc\	Do-
.	.	.	.	.	.	.	.	.	8cc\	-mi-
.	.	.	.	4c\	-ne-	2f#X\	.	.	2a\	-ne
.	.	.	.	4c\	-di-	.	.	.	.	.
=102	=102	=102	=102	=102	=102	=102	=102	=102	=102	=102
2G\	Be-	2G\	be-	(>4B\	-xi-	2g\	-am	-cob]]	4dd\	ter-
.	.	.	.	4A\)	.	.	.	.	4dd\	-ram
4G\	-ne-	4G\	-ne-	(>4B\	-sti	2r	.	.	2ee\	tu-
4G\	-di-	4G\	-di-	4G\)	.	.	.	.	.	.
*	*	*	*	*	*	*	*v	*v	*	*
=103	=103	=103	=103	=103	=103	=103	=103	=103	=103
!	!	!	!	!	!	!LO:TX:t=P:problem=w źródle pojedyncza kreska taktowa po pauzie 4r lub skreślona nuta	!	!	!
4F\	-xi-	4F\	-xi-	2.A/	Do-	4r	.	2a\	-am
4F\	-ſti	4F\	-sti	.	.	2c\	A-	.	.
4.F\	Do-	4.F\	Do-	.	.	.	.	2r	.
.	.	.	.	4A/	-mi-	4d\	-ver-	.	.
8F\	-mi-	8F\	-mi-	.	.	.	.	.	.
=104	=104	=104	=104	=104	=104	=104	=104	=104	=104
2E,<\	-ne	2E\	-ne	2G/	-ne	(>4e\	-ti-	0r	.
.	.	.	.	.	.	4f\)	.	.	.
4A\	ter-	4A\	ter-	[<2c\	ter-	(>4g\	-sti	.	.
!	!	!	!	!	!	!LO:TX:t=P:problem=w źródle skreślone takty	!	!	!
4A\	-ram	4A\	-ram	.	.	4c\)	.	.	.
!	!	!LO:LB:g=original	!	!	!	!LO:LB:g=original	!	!	!
=105	=105	=105	=105	=105	=105	=105	=105	=105	=105
*	*	*	*	*	*	*	*^	*	*
(>2D\	tu-	2D/	tu-	4c\]	.	2f\	ca-	[[Do-	.	.
.	.	.	.	4c\	-ram	.	.	.	.	.
!	!	!	!	!	!	!LO:TX:t=P:problem=w źródle skreślony fragment	!	!	!	!
2G\)	.	2G\	.	2B\	tu-	4g\	-pti-	-mi-	.	.
.	.	.	.	.	.	4f\	-vi-	-ne	.	.
=106	=106	=106	=106	=106	=106	=106	=106	=106	=106	=106
2C/	-am	2C/	-am	2c\	-am	2.e\	-ta-	ter-	4r	.
.	.	.	.	.	.	.	.	.	2g/	A-
2r	.	2rBB	.	2r	.	.	.	.	.	.
.	.	.	.	.	.	4f\	.	.	4a\	-ver-
=107	=107	=107	=107	=107	=107	=107	=107	=107	=107	=107
0r	.	0r	.	1G	be-	[<1g	.	.	(>4b\	-ti-
.	.	.	.	.	.	.	.	.	4cc\)	.
.	.	.	.	.	.	.	.	.	4dd\	-sti
.	.	.	.	.	.	.	.	.	4g\	.
=108	=108	=108	=108	=108	=108	=108	=108	=108	=108	=108
.	.	.	.	2.A/	-ne-	2g\]	.	.	4cc\	ca-
.	.	.	.	.	.	.	.	.	8cc\	-pti-
.	.	.	.	.	.	.	.	.	8cc\	-vi-
.	.	.	.	.	.	[<2f\	.	.	(>4cc\	-ta-
.	.	.	.	4B\	-di-	.	.	.	4dd\)	.
!LO:PB:g=original	!	!	!	!	!	!	!	!	!	!
=109	=109	=109	=109	=109	=109	=109	=109	=109	=109	=109
4r	.	4r	.	2c\	-xi-	2f\]	.	.	2g/	-tem
2C/	a-	2C/	a-	.	.	.	.	.	.	.
.	.	.	.	2c\	-sti	(>4e\	-tem	.	2r	.
4D/	-ver-	4D/	-ver-	.	.	4d\)	.	.	.	.
!	!	!	!	!LO:LB:g=original	!	!	!	!	!LO:LB:g=original	!
=110	=110	=110	=110	=110	=110	=110	=110	=110	=110	=110
(>4E\	-ti-	(>4E\	-ti-	2r	.	(<4c/	Ja-	-ram	1rg	.
4F\)	.	4F\)	.	.	.	4G/)	.	.	.	.
4G\	-sti	4G\	-sti	4c\	ter-	[<2c/	.	ter-	.	.
4C/	.	4C/	.	4c\	-ram	.	.	.	.	.
=111	=111	=111	=111	=111	=111	=111	=111	=111	=111	=111
2F\	Ca-	2F\	ca-	(<4A/	ter-	4c/]	.	.	4r	.
.	.	.	.	4G/)	.	4B/	.	.	2cc\	A-
4F\	-pti-	4F\	-pti-	4A/	.	(<4A/	.	-ram	.	.
4F\	-vi-	4F\	-vi-	4F/	.	4B/)	.	.	4dd\	-ver-
=112	=112	=112	=112	=112	=112	=112	=112	=112	=112	=112
2E\	-ta-	2E\	-ta-	4G/	.	2c/	.	tu-	(>&(<4ee\	-ti-
.	.	.	.	4G/	-ram	.	.	.	4ff\&))	.
2E\	-tem	2E\	-tem	[<2c\	tu-	2c/	-cob	-am]]	(>4gg\	-sti
.	.	.	.	.	.	.	.	.	4cc\)	.
*	*	*	*	*	*	*	*v	*v	*	*
=113	=113	=113	=113	=113	=113	=113	=113	=113	=113
2D\	Ja-	2D/	Ja-	2c\]	.	1r	.	2ff\	ca-
2G\	.	2G\	.	2B\	.	.	.	4ee\	-pti-
.	.	.	.	.	.	.	.	4dd\	-vi-
!	!	!	!	!	!	!LO:LB:g=original	!	!	!
=114	=114	=114	=114	=114	=114	=114	=114	=114	=114
2C/	-cob	2C/	-cob	4c,<\	-am	1c	be-	2ee\	-ta-
.	.	.	.	2G/	A-	.	.	.	.
2rBB	.	2rBB	.	.	.	.	.	2cc\	-tem
.	.	.	.	4A/	-ver-	.	.	.	.
=115	=115	=115	=115	=115	=115	=115	=115	=115	=115
!	!	!LO:TX:a:B:t=1.	!	!	!	!	!	!	!
1r	.	1r	.	(>4B\	-ti-	1d	-ne-	2gg\	Ja-
.	.	.	.	4c\)	.	.	.	.	.
.	.	.	.	(<4d\	-sti	.	.	2g/	.
.	.	.	.	4G/)	.	.	.	.	.
!	!	!LO:LB:g=original	!	!	!	!	!	!	!
=116	=116	=116	=116	=116	=116	=116	=116	=116	=116
2c\	Be-	2c\	be-	2c\	ca-	2.e\	-di-	1a	.
4c\	-ne-	4c\	-ne-	4B\	-pti-	.	.	.	.
4c\	-di-	4c\	-di-	4A\	-vi-	4f#X\	.	.	.
=117	=117	=117	=117	=117	=117	=117	=117	=117	=117
(>4B\	-xi-	(>4B\	-xi-	2G/	-ta-	2g\	-xi-	2b\	-cob
4A\)	.	4A\)	.	.	.	.	.	.	.
(>4B\	-ſti	(>4B\	-sti	2E/	-tem	(<4G/	-sti	2r	.
4G\)	.	4G\)	.	.	.	4c/)	.	.	.
!LO:LB:g=original	!	!	!	!	!	!	!	!	!
=118	=118	=118	=118	=118	=118	=118	=118	=118	=118
2.A\	Do-	2.A\	Do-	1F	Ja-	2.A/	Do-	4r	.
.	.	.	.	.	.	.	.	2c/	a-
4A\	-mi-	4A\	-mi-	.	.	4B/	-mi-	4d/	-ver-
!	!	!	!	!LO:LB:g=original	!	!	!	!LO:LB:g=original	!
=119	=119	=119	=119	=119	=119	=119	=119	=119	=119
2G\	-ne	2G\	-ne	2E/	-cob	2c,</	-ne	(<4e/	-ti-
.	.	.	.	.	.	.	.	4f/)	.
2r	.	2r	.	[<2c\	Ja-	2c/	ter-	(<4g/	-sti
.	.	.	.	.	.	.	.	4c/)	.
=120	=120	=120	=120	=120	=120	=120	=120	=120	=120
1r	.	1rD	.	2c\]	.	2f\	-ram	2f/	Cap-
.	.	.	.	2B\	.	2d\	tu-	4g/	-ti-
.	.	.	.	.	.	.	.	4f/	-vi-
=121	=121	=121	=121	=121	=121	=121	=121	=121	=121
!	!	!	!	!	!	!LO:TX:t=P:problem=w źródle skreślony takt	!	!	!
4r	.	4r	.	2c\	-cob	1e	-am	2.e/	-ta-
2G\	a-	2G\	a-	.	.	.	.	.	.
.	.	.	.	2r	.	.	.	.	.
4A\	-ver-	4A\	-ver-	.	.	.	.	4f/	-tem
=122	=122	=122	=122	=122	=122	=122	=122	=122	=122
(>4B\	-ti-	(>4B\	-ti-	2d\	ca-	4r	.	4g/	Ja-
4c\)	.	4c\)	.	.	.	2g\	a-	4d/	.
(>4d\	-sti	(>4d\	-sti	4d\	-pti-	.	.	[<2g/	.
4G\)	.	4G,<\)	.	4d\	-vi-	4g\	-ver-	.	.
=123	=123	=123	=123	=123	=123	=123	=123	=123	=123
2c\	Ca-	2c\	ca-	2c\	-ta-	1a	-ti-	2g/]	.
4B\	-pti-	4B\	-pti-	2c,<\	-tem	.	.	2f#X/	.
4A\	-vi-	4A\	-vi-	.	.	.	.	.	.
=124	=124	=124	=124	=124	=124	=124	=124	=124	=124
2B\	-ta-	2B\	-ta-	(>4B\	Ja-	1g	-sti	2g/	-cob
.	.	.	.	4A\)	.	.	.	.	.
2E\	-tem	2E,<\	-tem	4B\	.	.	.	2r	.
.	.	.	.	4G/	.	.	.	.	.
!	!	!	!	!	!	!LO:LB:g=original	!	!	!
=125	=125	=125	=125	=125	=125	=125	=125	=125	=125
*	*	*	*	*	*	*	*^	*	*^
*	*	*	*	*	*	*2\left	*	*	*2\left	*	*
1F	Ja-	1F	Ja-	2A/	-cob	4r	.	.	4r	.	.
!	!	!	!	!	!	!	!	!	!LO:TX:t=P:global:problem=skreślony tekst zapisany w drugim wersie	!	!
!	!	!	!	!	!	!LO:TX:t=P:problem:problem=w źródle skreślona nuta przypominająca kreskę taktową	!	!	!LO:TX:t=P:problem:problem=w źródle skreślona nuta przypominająca kreskę taktową	!	!
.	.	.	.	.	.	2c\	a-	[[ca_pti-	2a\	a-	[[ca_pti-
.	.	.	.	2r	.	.	.	.	.	.	.
.	.	.	.	.	.	4c\	-ver-	-vi-	4b\	-ver-	-vi-
!	!	!LO:LB:g=original	!	!	!	!	!	!	!	!	!
=126-	=126-	=126	=126	=126	=126	=126	=126	=126	=126	=126	=126
*	*	*	*	*	*	*2\right	*	*	*2\right	*	*
1E	.	1E	.	4r	.	(>4e\	-ti-	-ta-	2cc\	-ti-	-ta-
.	.	.	.	2c\	A-	4f\)	.	.	.	.	.
.	.	.	.	.	.	4g\	-sti	-tem]]	4g/	-sti	-tem
.	.	.	.	4c\	-ver-	4c/	.	.	4g/	cap-	.
*	*	*	*	*	*	*	*v	*v	*	*	*
=127	=127	=127	=127	=127	=127	=127	=127	=127	=127	=127
2D/	.	2D/	.	(>4d\	-ti-	2f\	cap-	4f/	-ti-	Ja]]
.	.	.	.	4c\)	.	.	.	4f/	-vi-	.
2GG/	.	2GG/	.	(>4d\	-sti	4e\	-ti-	[<2g/	-ta-	.
.	.	.	.	4B\)	.	4d\	-vi-	.	.	.
!LO:LB:g=original	!	!	!	!	!	!	!	!LO:LB:g=original	!	!
*	*	*	*	*	*	*	*	*	*v	*v
=128	=128	=128	=128	=128	=128	=128	=128	=128	=128
2C/	.	2C,</	-cob	2c\	ca-	2e\	-ta-	2g/]	.
2F\	.	2FF/	Ja-	4A/	-pti-	2f\	-tem	2a\	.
.	.	.	.	4A/	-vi-	.	.	.	.
!	!	!	!	!LO:LB:g=original	!	!	!	!	!
=129	=129	=129	=129	=129	=129	=129	=129	=129	=129
2G\	.	2GG/	.	2G/	-ta-	(>2d\	Ja-	2b,<\	-tem
2C/	.	2C/	.	2G/	-tem	2e\)	.	[<2cc\	Ja-
=130	=130	=130	=130	=130	=130	=130	=130	=130	=130
1GG	.	1GG	.	1G	Ja-	1d	.	2cc\]	.
.	.	.	.	.	.	.	.	2b\	.
=131-	=131-	=131	=131	=131	=131	=131	=131	=131	=131
!LO:N:vis=0	!	!	!	!	!	!	!	!	!
1C;>	-cob.	1C;>	-cob.	1G;>	-cob.	1e	-cob.	1cc	-cob.
=132||	=132||	=132||	=132||	=132||	=132||	=132||	=132||	=132||	=132||
*M3/4	*	*M3/4	*	*M3/4	*	*M3/4	*	*M3/4	*
*rscale:2	*	*	*	*	*	*	*	*	*
!LO:TX:t=P:problem=w źródle partia zapisana w metrum 3/2	!	!	!	!	!	!	!	!	!
4.A\	Glo-	4.A\	Glo-	4.c\	Glo-	4.e\	Glo-	4.a\	Glo-
8A\	-ri-	8A\	-ri-	8c\	-ri-	8e\	-ri-	8a\	-ri-
4A\	-a	4A\	-a	4c\	-a	4e\	-a	4a\	-a
=133	=133	=133	=133	=133	=133	=133	=133	=133	=133
2E\	Pa-	2E\	Pa-	2B\	Pa-	2e\	Pa-	2g#X/	Pa-
4E\	-tri.	4E\	-tri	4B,<\	-tri	4e\	-tri	4g#,</	-tri
=134	=134	=134	=134	=134	=134	=134	=134	=134	=134
4.A\	Glo-	4.A\	glo-	4.c#X\	glo-	4.e\	glo-	4.a\	glo-
8A\	-ri-	8A\	-ri-	8c#\	-ri-	8e\	-ri-	8a\	-ri-
4A\	-a	4A\	-a	4c#\	-a	4e\	-a	4a\	-a
=135	=135	=135	=135	=135	=135	=135	=135	=135	=135
4.D/	Fi-	4.D\	Fi-	4.d\	Fi-	4.f\	Fi-	4.a\	Fi-
8D/	-li-	8D\	-li-	8d\	-li-	8f\	-li-	8a\	-li-
4D/	-o	4D\	-o	4d,<\	-o	4f\	-o	4a\	-o
!LO:LB:g=original	!	!	!	!	!	!LO:LB:g=original	!	!	!
=136	=136	=136	=136	=136	=136	=136	=136	=136	=136
2G\	et	2G\	et	2d\	et	2g\	et	2b\	et
4G\	Spi-	4G\	Spi-	4d\	spi-	4g\	Spi-	4b\	Spi-
!	!	!LO:LB:g=original	!	!	!	!	!	!	!
=137	=137	=137	=137	=137	=137	=137	=137	=137	=137
4.E\	-ri-	4.E\	-ri-	4.e\	-ri-	4.g\	-ri-	4.cc\	-ri-
8E\	-tu-	8E\	-tu-	8e\	-tu-	8g\	-tu-	8cc\	-tu-
4E\	-i	4E\	-i	4e,<\	-i	4g\	-i	4cc\	-i
=138	=138	=138	=138	=138	=138	=138	=138	=138	=138
(>8F\	San-	8F\L	San-	4c\	San-	8f\L	San-	2a\	San-
8C\	.	8C\J	.	.	.	8e\J	.	.	.
4D\)	.	4D\	.	2B\	.	4f\	.	.	.
4E\	.	4E\	.	.	.	4e\	.	4g#X\	.
=139	=139	=139	=139	=139	=139	=139	=139	=139	=139
8F\	.	8F\L	.	(>8A\L	.	8c\L	.	2a\	.
8D\	.	8D\J	.	8d\J)	.	8f\J	.	.	.
2E\	.	2E\	.	2B\	.	2e\	.	.	.
.	.	.	.	.	.	.	.	4g#X\	.
=140	=140	=140	=140	=140	=140	=140	=140	=140	=140
!	!	!	!	!	!	!	!	!LO:TX:a:t=P:problem=w źródle strzałka wkazująca na nute 4a dopisana ołówkiem	!
4AA,</	-cto.	4AA/	-cto	4c,<\	-cto	4e,<\	-cto	4a\	-cto
!	!	!	!	!	!	!	!	!LO:LB:g=original	!
4A\	Si-	4A\	Si-	4e\	Si-	4a\	Si-	4cc\	Si-
4B\	-cut	4B\	-cut	4d\	-cut	4g#X\	-cut	4dd\	-cut
!	!	!	!	!LO:LB:g=original	!	!	!	!	!
=141	=141	=141	=141	=141	=141	=141	=141	=141	=141
4.c\	e-	4.c\	e-	4.c\	e-	4.a\	e-	4.ee\	e-
8c\	-rat	8c\	-rat	8c\	-rat	8a\	-rat	8ee\	-rat
8G#X\	in	8G#X\	in	8B\	in	8e\	in	8dd\	in
8A\	prin-	8A\	prin-	8A\	prin-	8e\	prin-	8cc\	prin-
!LO:LB:g=original	!	!	!	!	!	!	!	!	!
=142	=142	=142	=142	=142	=142	=142	=142	=142	=142
4.E\	-ci-	4.E\	-ci-	4.G#X/	-ci-	4.e\	-ci-	4.b\	-ci-
8E\	-pi-	8E\	-pi-	8G#/	-pi-	8e\	-pi-	8b\	-pi-
4E\	-o	4E\	-o	4G#,</	-o	4e\	-o	4b\	-o
=143	=143	=143	=143	=143	=143	=143	=143	=143	=143
4C/	et	4C/	et	4Gn/	(Et)	4e\	(et)	4cc\	(et)
4F,<\	nunc	4F\	Nunc	4F/	Nunc	4a\	nunc	4cc\	nunc
4E\	et	4E\	et	4G/	(et)	4g\	et	4cc\	et
=144	=144	=144	=144	=144	=144	=144	=144	=144	=144
4D\	sem-	4D/	sem-	(<4A/	sem-	4f\	sem-	(>2cc\	sem-
4G\	.	4G\	.	2G/)	.	2d\	.	.	.
4GG/	.	4GG/	.	.	.	.	.	4b\)	.
=145	=145	=145	=145	=145	=145	=145	=145	=145	=145
4C,</	per	4C,</	per	4G,</	-per	4e,<\	-per	4cc,<\	-per
4A\	et	4A\	et	4A/	(et)	4e\	et	4cc\	et
4E\	in	4E\	in	4c\	in	4e\	in	4g/	in
=146	=146	=146	=146	=146	=146	=146	=146	=146	=146
4.F\	sae-	4.F\	sae-	4.c\	sae-	4.c\	sae-	4.a\	sae-
8F\	-cu-	8F\	-cu-	8c\	-cu-	8c\	-cu-	8a\	-cu-
4C/	-la	4C/	-la	4c\	-la	4e\	-la	4a\	-la
!	!	!LO:LB:g=original	!	!	!	!	!	!	!
=147	=147	=147	=147	=147	=147	=147	=147	=147	=147
4.D\	sae-	4.D\	sae-	4.B\	sae-	4.f\	sae-	4.a\	sae-
8E\	-cu-	8E\	-cu-	8B\	-cu-	8e\	-cu-	8g#X\	-cu-
4F\	-lo-	4F\	-lo-	4A/	-lo-	4c/	-lo-	4a\	-lo-
!LO:LB:g=original	!	!	!	!	!	!	!	!	!
=148	=148	=148	=148	=148	=148	=148	=148	=148	=148
4D,<\	-rum	4D\	-rum	4d\	-rum	4f\	-rum	4a\	-rum
4E\	A-	(>4E\	a-	2B\	a-	2e\	a-	(<4a\	a-
4EE/	.	4EE/)	.	.	.	.	.	4g#X/)	.
=149	=149	=149	=149	=149	=149	=149	=149	=149	=149
2AA/	-men.	2AA/	-men.	2c#X,<\	-men	2e\	-men.	2a\	-men
!	!	!	!	!	!	!LO:TX:a:t=P:pagebreak:problem=według dalszego przebiegu utworu powinno być tu łamanie strony	!	!LO:TX:a:t=P:pagebreak:problem=według dalszego przebiegu utworu powinno być tu łamanie strony	!
!LO:TX:a:t=P:pagebreak:problem=według dalszego przebiegu utworu powinno być tu łamanie strony	!	!LO:TX:a:t=P:pagebreak:problem=według dalszego przebiegu utworu powinno być tu łamanie strony	!	!LO:TX:a:t=P:pagebreak:problem=według dalszego przebiegu utworu powinno być tu łamanie strony	!	!	!	!	!
!LO:TX:a:t=P:problem=w źródle ozdobna kreska końcowa [brak informacji o "Rorate ūt supra." jak w innych głosach]	!	!	!	!	!	!LO:TX:a:t=P:problem=w źródle kreska końcowa znajduje się po "Rorate ūt supra" [po tym takcie podwójna kreska taktowa]	!	!LO:TX:a:t=P:problem=w źródle kreska końcowa znajduje się po "Rorate ūt supra" [po tym takcie podwójna kreska taktowa]	!
!	!	!LO:TX:a:t=P:problem=w źródle kreska końcowa znajduje się po "Rorate ūt supra" [po tym takcie podwójna kreska taktowa]	!	!LO:TX:a:t=P:problem=w źródle kreska końcowa znajduje się po "Rorate ūt supra" [po tym takcie podwójna kreska taktowa]	!	!	!	!	!
!	!	!LO:TX:b:Bi:t=O. ad MDG.	!	!LO:TX:b:Bi:t=O ad MDG.	!	!	!	!	!
!	!	!LO:TX:a:Bi:t=Rorate ūt supra.	!	!LO:TX:a:Bi:t=Rorate \nūt supra.	!	!LO:TX:a:Bi:t=Rorate\nūt supra	!	!LO:TX:a:Bi:t=Rorate\nūt supra	!
4rBB	.	4r	.	4r	.	4r	.	4r	.
*rscale:1	*	*	*	*	*	*	*	*	*
=150||	=150||	=150||	=150||	=150||	=150||	=150||	=150||	=150||	=150||
*clefF4	*	*clefF4	*	*clefC4	*	*clefC3	*	*clefC1	*
*M2/2	*	*M2/2	*	*M2/2	*	*M2/2	*	*M2/2	*
*met(c|)	*	*met(c|)	*	*met(c|)	*	*met(c|)	*	*met(c|)	*
!LO:TX:a:t=P:problem=w źródle brak informacji o "Rorate ūt supra." [powtórzone by dopasować do innych głosów]	!	!	!	!	!	!	!	!	!
!LO:TX:a:Bi:t=à Capella	!	!	!	!	!	!LO:TX:a:Bi:t=S.	!	!LO:TX:b:Bi:t=Rorate.	!
!LO:TX:t=P:problem=ozdobna litera R na początku pięciolinii	!	!	!	!	!	!	!	!	!
!	!	!	!	!	!	!LO:TX:t=P:problem=w źródle oznaczenie metryczne 2	!	!LO:TX:t=P:problem=w źródle oznaczenie metryczne 2	!
!	!	!LO:TX:t=P:problem=w źródle oznaczenie metryczne 2	!	!LO:TX:t=P:problem=w źródle oznaczenie metryczne 2	!	!	!	!	!
00ryy	.	00r	.	1r	.	1c	Ro-	00r	.
=151	=151	=151	=151	=151	=151	=151	=151	=151	=151
.	.	.	.	1G	Ro-	1d	-ra-	.	.
=152	=152	=152	=152	=152	=152	=152	=152	=152	=152
.	.	.	.	1A	-ra-	(>4c\	-te	.	.
.	.	.	.	.	.	4d\)	.	.	.
.	.	.	.	.	.	(>4e\	.	.	.
.	.	.	.	.	.	4f\)	.	.	.
=153	=153	=153	=153	=153	=153	=153	=153	=153	=153
.	.	.	.	2G/	-te	(>2.g\	Cae-	.	.
.	.	.	.	4A/	.	.	.	.	.
.	.	.	.	4B\	.	4f\)	.	.	.
=154	=154	=154	=154	=154	=154	=154	=154	=154	=154
1Cyy	Ro-	1C	Ro-	2.c\	Cae-	2e,<\	-li	0r	.
.	.	.	.	.	.	2g\	de-	.	.
.	.	.	.	4c\	-li	.	.	.	.
=155	=155	=155	=155	=155	=155	=155	=155	=155	=155
1Dyy	-ra-	1D	-ra-	2A/	de-	1f	-su-	.	.
.	.	.	.	2B\	.	.	.	.	.
=156	=156	=156	=156	=156	=156	=156	=156	=156	=156
4C,</yy	-te	4C/	-te	2c\	.	1e	-per	2cc\	et
*	*ij	*	*ij	*	*	*	*	*	*
4D/yy	Ro-	4D/	Ro-	.	.	.	.	.	.
4E\yy	-ra-	4E/	-ra-	[<2G/	.	.	.	4b\	nu-
4F\yy	-te	4F/	-te	.	.	.	.	4a\	-bes
*	*Xij	*	*Xij	*	*	*	*	*	*
=157	=157	=157	=157	=157	=157	=157	=157	=157	=157
*	*	*2\left	*	*	*	*	*	*	*
!	!	!	!	!LO:N:xstem:cue	!	!	!	!	!
2.G\yy	Cae-	2.G\	Cae-	4G/]	.	1r	.	2b\	plu-
.	.	.	.	4A/	.	.	.	.	.
.	.	.	.	[>2B\	.	.	.	2b\	-ant
4F\yy	.	4F\	.	.	.	.	.	.	.
*	*	*	*	*	*	*	*	*	*
=158	=158	=158	=158	=158	=158	=158	=158	=158	=158
*	*	*2\right	*	*	*	*	*	*	*
2E,<\yy	-li	2E,<\	-li	2B\]	.	2g\	et	2g/	plu-
!	!	!	!	!	!	!LO:SIC:v:o=4f\	!	!	!
2E\yy	de-	2E\	de-	2G/	-su-	4g\	nu-	2g/	-ant
.	.	.	.	.	.	4e\	-bes	.	.
=159	=159	=159	=159	=159	=159	=159	=159	=159	=159
2A\yy	.	(>2A\	-su-	2A/	-per	2f\	plu-	2cc\	Ju-
2B\yy	-su-	2B\)	.	2r	.	2d,<\	-ant	2dd\	.
=160	=160	=160	=160	=160	=160	=160	=160	=160	=160
2c\yy	-per	2c\	-per	2c\	et	2e\	plu-	1g	-stum
2rFyy	.	2r	.	4B\	nu-	(>4d\	-ant	.	.
.	.	.	.	4A\	-bes	4c\)	.	.	.
!	!	!	!	!LO:LB:g=original	!	!LO:LB:g=original	!	!	!
=161	=161	=161	=161	=161	=161	=161	=161	=161	=161
!	!	!	!	!	!	!	!	!LO:TX:a:Bi:t=2	!
2G\yy	et	2G\	et	2B\	plu-	2d\	plu-	0r	.
!LO:SIC:v:o=4F\yy	!	!LO:SIC:v:o=4F\	!	!	!	!	!	!	!
4G\yy	nu-	4G\	nu-	2G/	-ant	2e\	-ant	.	.
*custos:F	*	*	*	*	*	*	*	*	*
4E\yy	-bes	4E\	-bes	.	.	.	.	.	.
!LO:LB:g=original	!	!	!	!	!	!	!	!	!
=162	=162	=162	=162	=162	=162	=162	=162	=162	=162
2F\yy	plu-	2F\	plu-	2A/	Ju-	2c/	Ju-	.	.
2D\yy	-ant	2D/	-ant	2B\	-ſtum	2d\	.	.	.
!	!	!LO:LB:g=original	!	!	!	!	!	!	!
=163	=163	=163	=163	=163	=163	=163	=163	=163	=163
*	*ij	*	*	*	*	*	*	*	*
4C/yy	plu-	(<4C/	plu-	1rF	.	1e	.	2cc\	et
4D/yy	.	4D/)	.	.	.	.	.	.	.
4E\yy	-ant	(>4E\	-ant	.	.	.	.	4b\	nu-
4F\yy	.	4F\)	.	.	.	.	.	4a\	-bes
*	*Xij	*	*	*	*	*	*	*	*
=164	=164	=164	=164	=164	=164	=164	=164	=164	=164
2G\yy	Ju-	2G\	Ju-	2G/	et	2d,<\	-stum	2b\	plu-
2E\yy	-stum	2E\	-stum	4G/	nu-	2e\	et	2g/	-ant
.	.	.	.	4G/	-bes	.	.	.	.
=165	=165	=165	=165	=165	=165	=165	=165	=165	=165
1ryy	.	1r	.	2F/	plu-	2c/	nu-	2.a\	plu-
.	.	.	.	2D/	-ant	2d\	-bes	.	.
.	.	.	.	.	.	.	.	4b\	-ant
!	!	!	!	!	!	!	!	!LO:LB:g=original	!
=166	=166	=166	=166	=166	=166	=166	=166	=166	=166
!	!	!LO:TX:t=P:problem=niejednoznaczny zapis łuku (łuków)	!	!	!	!	!	!	!
(<4C/yy	et	(>4C/	plu-	4E/	Ju-	1r	.	(>4cc\	plu-
4D/yy	.	4D\)	.	4F/	.	.	.	4b\)	.
4E/yy	.	(>4E\	-ant	[<2G/	.	.	.	(>4g\	-ant
4F/)yy	.	4F\)	.	.	.	.	.	4a\)	.
=167	=167	=167	=167	=167	=167	=167	=167	=167	=167
(>4G\yy	nu-	(>4G\	plu-	2G/]	.	2g\	et	(>4b\	plu-
4A\)yy	.	4A\)	.	.	.	.	.	4cc\)	.
4B\yy	-bes	4B\	-ant	2G/	-stum	4g\	nu-	(>4dd\	-ant
4G\yy	.	4G\	.	.	.	4g\	-bes	4b\)	.
=168	=168	=168	=168	=168	=168	=168	=168	=168	=168
2.c\yy	plu-	2.c\	plu-	0r	.	2.e\	plu-	(>4cc\	plu-
.	.	.	.	.	.	.	.	4g\)	.
.	.	.	.	.	.	.	.	(>4a\	-ant
4B,<\yy	-ant	4B\	-ant	.	.	4d\	-ant	4b\)	.
=169	=169	=169	=169	=169	=169	=169	=169	=169	=169
*	*ij	*	*ij	*	*	*	*	*	*
2A\yy	plu-	2A\	plu-	.	.	4e\	plu-	2cc\	Ju-
.	.	.	.	.	.	4f#X\	-ant	.	.
2G\yy	-ant	2G\	-ant	.	.	[<2g\	Ju-	2b,<\	-ſtum
*	*Xij	*	*Xij	*	*	*	*	*	*
=170	=170	=170	=170	=170	=170	=170	=170	=170	=170
1Dyy	Ju-	1D	Ju-	1rB	.	2g\]	.	2a\	et
.	.	.	.	.	.	2f#X\	.	4dd\	plu-
.	.	.	.	.	.	.	.	4cc\	-ant
!	!	!	!	!	!	!LO:LB:g=original	!	!	!
=171	=171	=171	=171	=171	=171	=171	=171	=171	=171
1GGyy	-stum	1GG	-stum	2G/	et	2g,<\	-st(um)	(>4b\	plu-
.	.	.	.	.	.	.	.	4g\)	.
!	!	!	!	!	!	!	!LO:MO:mod=plu-	!	!
.	.	.	.	4G/	nu-	4g\	pl-	(>4cc\	-ant
.	.	.	.	4G/	-bes	4g\	-ant	4b\)	.
!LO:LB:g=original	!	!LO:LB:g=original	!	!	!	!	!	!	!
=172	=172	=172	=172	=172	=172	=172	=172	=172	=172
1ryy	.	1rD	.	2F/	plu-	2a\	Ju-	2a\	Ju-
.	.	.	.	2D/	-ant	2f\	-stum	2b\	.
!	!	!	!	!LO:LB:g=original	!	!	!	!	!
=173	=173	=173	=173	=173	=173	=173	=173	=173	=173
!	!	!	!	!LO:TX:t=P:problem=w źródle niejednoznaczny zapis łuku	!	!	!	!	!
!	!	!	!	!	!	!LO:TX:a:t=P:problem=w źródle kreska taktowa przekreślona ołówkiem	!	!	!
2C/yy	et	2C/	et	4E/	plu-	1rc	.	1cc	-stum
.	.	.	.	(<4F/	.	.	.	.	.
4BB/yy	nu-	4BB/	nu-	4G/)	-ant	.	.	.	.
4AA/yy	-bes	4AA/	-bes	4A/	.	.	.	.	.
!	!	!	!	!	!	!	!	!LO:LB:g=original	!
=174	=174	=174	=174	=174	=174	=174	=174	=174	=174
2BB/yy	plu-	2BB/	plu-	4D/	plu-	2g\	et	1rg	.
.	.	.	.	4E/	.	.	.	.	.
2GG/yy	-ant	2GG/	-ant	(<4F/	-ant	4f\	nu-	.	.
.	.	.	.	4G/)	.	4e\	-bes	.	.
=175	=175	=175	=175	=175	=175	=175	=175	=175	=175
!	!	!	!	!	!	!	!	!LO:TX:t=P:problem=tekst dopisany [poprawiony nieczytelny fragment pod tekstem w taktach 175-182]	!
4AA/yy	et	(<4AA/	plu-	(<4C/	plu-	2f\	plu-	2cc\	et
(<4BB/yy	.	4BB/)	.	4D/)	.	.	.	.	.
4C/yy	.	(<4C/	-ant	(<4E/	-ant	2e\	-ant	4cc\	nu-
4D/)yy	.	4D/)	.	4F/)	.	.	.	4cc\	-bes
=176	=176	=176	=176	=176	=176	=176	=176	=176	=176
(>4E\yy	nu-	(>4E\	plu-	(>4G\	plu-	1e	Ju-	2b\	plu-
4F\)yy	.	4F\)	.	4A\)	.	.	.	.	.
(>4G\yy	-bes	4G\	-ant	(>4B\	-ant	.	.	2g/	-ant
4E\)yy	.	4E\	.	4c\)	.	.	.	.	.
=177	=177	=177	=177	=177	=177	=177	=177	=177	=177
(>4F\yy	plu-	(>4F\	plu-	4A\	Ju-	2.c,<\	-stum	1a	Ju-
4G\)yy	.	4G\)	.	4B\	.	.	.	.	.
(>4A\yy	-ant	(>4A\	-ant	[<2c\	.	.	.	.	.
4B\)yy	.	4B\)	.	.	.	4d\	et	.	.
=178	=178	=178	=178	=178	=178	=178	=178	=178	=178
*	*ij	*	*	*	*	*	*	*	*
2.c\yy	nu-	2.c\	Ju-	2c\]	.	4e\	nu-	1g	-ſtum
.	.	.	.	.	.	4f,<\	-bes	.	.
.	.	.	.	[<2c\	.	2g\	plu-	.	.
4B\yy	-bes	4B\	.	.	.	.	.	.	.
=179	=179	=179	=179	=179	=179	=179	=179	=179	=179
2A\yy	plu-	2A\	.	2c\]	.	2c/	-ant	2cc\	plu-
2F\yy	-ant	2F\	.	[<2d\	.	[<2f\	Ju-	2a\	-ant
*	*Xij	*	*	*	*	*	*	*	*
=180	=180	=180	=180	=180	=180	=180	=180	=180	=180
2G\yy	Ju-	2G\	.	2d\]	.	2f\]	.	2b\	Ju-
2C/yy	.	2C/	.	2c\	.	2e\	.	[<2cc\	.
!	!	!LO:LB:g=original	!	!	!	!	!	!	!
=181-	=181-	=181	=181	=181	=181	=181	=181	=181	=181
1GGyy	.	1GG	.	1d	.	1d	.	2cc\]	.
.	.	.	.	.	.	.	.	2b\	.
!	!	!	!	!LO:LB:g=original	!	!LO:LB:g=original	!	!	!
=182-	=182-	=182	=182	=182	=182	=182	=182	=182	=182
2C/yy	-stum	2C/	-stum	2G/	stum	2e,<\	-stum	2cc\	-ſtum
!	!	!	!	!	!	!LO:TX:a:B:t=+:rj	!	!	!
2ryy	.	2r	.	2rF	.	2c/	A-	2r	.
!LO:LB:g=original	!	!	!	!	!	!	!	!	!
=183	=183	=183	=183	=183	=183	=183	=183	=183	=183
00ryy	.	00r	.	2rF	.	2g\	-pe-	0r	.
.	.	.	.	2G/	a-	2g\	-ri-	.	.
=184	=184	=184	=184	=184	=184	=184	=184	=184	=184
.	.	.	.	2c\	-pe-	(>4e\	-a-	.	.
.	.	.	.	.	.	4d\)	.	.	.
.	.	.	.	2c\	-ri-	4e\	-tur	.	.
.	.	.	.	.	.	4c/	.	.	.
=185	=185	=185	=185	=185	=185	=185	=185	=185	=185
.	.	.	.	(>4B\	-a-	2d\	ter-	1g	A-
.	.	.	.	4A\)	.	.	.	.	.
.	.	.	.	(>4B\	-tur	[<2g\	.	.	.
.	.	.	.	4G\)	.	.	.	.	.
=186	=186	=186	=186	=186	=186	=186	=186	=186	=186
.	.	.	.	1A	ter-	2g\]	.	2.cc\	-pe-
.	.	.	.	.	.	2f#X\	.	.	.
.	.	.	.	.	.	.	.	4cc\	-ri-
!	!	!	!	!	!	!	!	!LO:LB:g=original	!
=187	=187	=187	=187	=187	=187	=187	=187	=187	=187
0ryy	.	0r	.	2G,</	-ra	2g,<\	-ra	(>4b\	-a-
.	.	.	.	.	.	.	.	4a\)	.
!	!	!	!	!	!	!	!LO:MO:mod=et	!	!
.	.	.	.	2E/	a-	2g\	er	(>4b\	-tur
.	.	.	.	.	.	.	.	4g\)	.
=188	=188	=188	=188	=188	=188	=188	=188	=188	=188
.	.	.	.	4F/	-pe-	4.fn\	ger-	2a\	ter-
.	.	.	.	4F/	-ri-	.	.	.	.
.	.	.	.	.	.	8f\	-mi-	.	.
.	.	.	.	4G/	-a-	2d\	-net	2b\	.
.	.	.	.	4G/	-tur	.	.	.	.
=189	=189	=189	=189	=189	=189	=189	=189	=189	=189
1Cyy	a-	1C	a-	4E/	ter-	2e\	Sal-	1cc	.
.	.	.	.	4F/	.	.	.	.	.
.	.	.	.	4G/	.	2e\	-va-	.	.
.	.	.	.	4A/	.	.	.	.	.
=190	=190	=190	=190	=190	=190	=190	=190	=190	=190
2.G\yy	-pe-	2.G\	-pe-	4B\	.	2d\	-to-	1b	-ra
.	.	.	.	4c\	.	.	.	.	.
.	.	.	.	4d\	.	[<2G/	.	.	.
!	!	!LO:SIC:v:o=4G\	!	!	!	!	!	!	!
4F\yy	-ri-	4F\	-ri-	4B\	.	.	.	.	.
=191	=191	=191	=191	=191	=191	=191	=191	=191	=191
(>4E\yy	-a-	(>4E\	-a-	2.c\	.	2G/]	.	0r	.
4D\)yy	.	4D\)	.	.	.	.	.	.	.
(>4E\yy	-tur	(>4E\	-tur	.	.	2g\	.	.	.
4C\)yy	.	4C/)	.	4B\	.	.	.	.	.
!	!	!	!	!LO:LB:g=original	!	!LO:LB:g=original	!	!	!
=192	=192	=192	=192	=192	=192	=192	=192	=192	=192
2F\yy	ter-	(>2F\	ter-	2A/	.	2a\	.	.	.
2G\yy	.	2G\)	.	2B\	.	[<2g\	.	.	.
=193	=193	=193	=193	=193	=193	=193	=193	=193	=193
1Ayy	.	1A	.	2c\	.	2g\]	.	1cc	et
.	.	.	.	2A/	.	2f#X\	.	.	.
=194-	=194-	=194	=194	=194	=194	=194	=194	=194	=194
1Gyy	-ra	1G	-ra	2d,<\	-ra	2g,<\	-rem	4.b\	ger-
.	.	.	.	.	.	.	.	8b\	-mi-
.	.	.	.	2G/	et	4B/	Sal-	2g/	-net
.	.	.	.	.	.	4B/	-va-	.	.
=195	=195	=195	=195	=195	=195	=195	=195	=195	=195
1ryy	.	1r	.	4.F/	ger-	(<2c/	-to-	2a\	Sal-
.	.	.	.	8F/	-mi-	.	.	.	.
.	.	.	.	2D/	-net	2d\)	.	2b\	-va-
=196	=196	=196	=196	=196	=196	=196	=196	=196	=196
1cyy	et	1c	et	2E/	Sal-	2G/	-rem	1cc	-to-
.	.	.	.	2e\	-va-	2rA	.	.	.
=197-	=197-	=197	=197	=197	=197	=197	=197	=197	=197
4.B\yy	ger-	4.B\	ger-	2d\	-to-	1g	et	2g/	-rem
!	!	!LO:SIC:v:o=8B\	!	!	!	!	!	!	!
8A\yy	-mi-	8A\	-mi-	.	.	.	.	.	.
2G\yy	-net	2G\	-net	2B\	-rem	.	.	2b\	et
=198	=198	=198	=198	=198	=198	=198	=198	=198	=198
2A\yy	Sal-	2A\	Sal-	1rF	.	4.fn\	ger-	4.cc\	ger-
.	.	.	.	.	.	8f\	-mi-	8cc\	-mi-
2B\yy	-va-	2B\	-va-	.	.	2d\	-net	2dd\	-net
!	!	!LO:LB:g=original	!	!	!	!	!	!LO:LB:g=original	!
=199	=199	=199	=199	=199	=199	=199	=199	=199	=199
2c\yy	-to-	2c\	-to-	1c	et	2.e\	Sal-	2.g/	Sal-
2C/yy	.	2C/	.	.	.	.	.	.	.
.	.	.	.	.	.	4f\	-va-	4a\	-va-
=200-	=200-	=200	=200	=200	=200	=200	=200	=200	=200
2G\yy	-rem	2G\	-rem	4.B\	ger-	1g	-to-	4b\	-to-
.	.	.	.	.	.	.	.	4cc\	.
.	.	.	.	8B\	-mi-	.	.	.	.
2ryy	.	2r	.	2G/	-net	.	.	4dd\	.
.	.	.	.	.	.	.	.	4b\	.
!LO:LB:g=original	!	!	!	!	!	!	!	!	!
=201	=201	=201	=201	=201	=201	=201	=201	=201	=201
1rAyy	.	1r	.	2A/	Sal-	1f	.	2cc\	.
.	.	.	.	2B\	-va-	.	.	[<2dd\	.
=202-	=202-	=202	=202	=202	=202	=202	=202	=202	=202
2ryy	.	2rBB	.	1c	-to-	1e	.	4dd\]	.
.	.	.	.	.	.	.	.	4g/	.
2C/yy	et	2C/	et	.	.	.	.	[<2cc\	.
!	!	!	!	!	!	!LO:LB:g=original	!	!	!
=203	=203	=203	=203	=203	=203	=203	=203	=203	=203
2.G\yy	ger-	2.G\	ger-	1G	-rem	2d\	.	2cc\]	.
.	.	.	.	.	.	[<2g\	.	2b\	.
4F\yy	-mi-	4F\	-mi-	.	.	.	.	.	.
=204	=204	=204	=204	=204	=204	=204	=204	=204	=204
2E,<\yy	-net	2E,<\	-net	0r	.	2g\]	.	2.cc\	.
4C/yy	Sal-	4C/	Sal-	.	.	2e\	.	.	.
4C/yy	-va-	4C/	-va-	.	.	.	.	4b\	.
=205	=205	=205	=205	=205	=205	=205	=205	=205	=205
2D\yy	-to-	2D/	-to-	.	.	2f#X\	.	2a\	.
2E\yy	.	2E\	.	.	.	2g\	-rem	[<2g/	.
!	!	!	!	!LO:LB:g=original	!	!	!	!	!
=206	=206	=206	=206	=206	=206	=206	=206	=206	=206
1Dyy	.	1D	.	1d	et	1r	.	2g/]	.
.	.	.	.	.	.	.	.	2f#X/	.
=207-	=207-	=207	=207	=207	=207	=207	=207	=207	=207
2GG/yy	-rem	2GG/	-rem	4.B\	ger-	2r	.	1g	-rem
.	.	.	.	8B\	-mi-	.	.	.	.
2rBByy	.	2rBB	.	2G/	-net	2g\	et	.	.
=208	=208	=208	=208	=208	=208	=208	=208	=208	=208
0ryy	.	0r	.	2A/	Sal-	4.fn\	ger-	1rg	.
.	.	.	.	.	.	8f\	-mi-	.	.
.	.	.	.	2B\	-va-	2d\	-net	.	.
=209	=209	=209	=209	=209	=209	=209	=209	=209	=209
.	.	.	.	1c	-to-	2e\	Sal-	1cc	et
.	.	.	.	.	.	2e\	-va-	.	.
=210-	=210-	=210	=210	=210	=210	=210	=210	=210	=210
1Gyy	et	1G	et	2G/	.	2.d\	-to-	4.b\	ger-
.	.	.	.	.	.	.	.	8b\	-mi-
.	.	.	.	2B,<\	-rem	.	.	2g/	-net
.	.	.	.	.	.	4e\	.	.	.
!	!	!	!	!	!	!	!	!LO:LB:g=original	!
=211-	=211-	=211	=211	=211	=211	=211	=211	=211	=211
4.F\yy	ger-	4.F\	ger-	1d	et	1f	.	2a\	Sal-
!	!	!LO:SIC:v:o=8F\	!	!	!	!	!	!	!
8E\yy	-mi-	8E-\	-mi-	.	.	.	.	.	.
2D\yy	-net	2D/	-net	.	.	.	.	2b\	-va-
!	!	!LO:LB:g=original	!	!	!	!	!	!	!
=212	=212	=212	=212	=212	=212	=212	=212	=212	=212
2E\yy	Sal-	2E\	Sal-	4.G/	ger-	1e	.	1cc	-to-
.	.	.	.	8G/	-mi-	.	.	.	.
2F\yy	-va-	2F\	-va-	2A/	-net	.	.	.	.
=213	=213	=213	=213	=213	=213	=213	=213	=213	=213
(>1Gyy	-to-	1G	-to-	4B\	Sal-	2d\	.	1b	-rem
.	.	.	.	4c\	.	.	.	.	.
.	.	.	.	4d\	-va-	[<2g\	.	.	.
.	.	.	.	4B\	.	.	.	.	.
=214-	=214-	=214	=214	=214	=214	=214	=214	=214	=214
1A)yy	.	1A	.	[<1c	-to-	2g\]	.	1rg	.
.	.	.	.	.	.	2f#X\	.	.	.
=215-	=215-	=215	=215	=215	=215	=215	=215	=215	=215
2G,>\yy	-rem	2G,<\	-rem	2c\]	.	1g	-rem	2re	.
2G\yy	et	2G\	et	2B\	.	.	.	2b\	et
!LO:LB:g=original	!	!	!	!	!	!LO:LB:g=original	!	!	!
=216	=216	=216	=216	=216	=216	=216	=216	=216	=216
2.c\yy	ger-	2.c\	ger-	2c\	-rem	2r	.	2.ee\	ger-
.	.	.	.	2r	.	2g\	et	.	.
4B\yy	-mi-	4B\	-mi-	.	.	.	.	4dd\	-mi-
=217-	=217-	=217	=217	=217	=217	=217	=217	=217	=217
2A,>\yy	-net	2A,<\	-net	2r	.	2.a\	ger-	2cc,<\	-net
*	*ij	*	*	*	*	*	*	*	*
2E\yy	et	2E\	et	2e\	et	.	.	4cc\	Sal-
.	.	.	.	.	.	4g\	-mi-	4b\	-va-
=218	=218	=218	=218	=218	=218	=218	=218	=218	=218
2.F\yy	ger-	2.F\	ger-	2.c\	ger-	[<1f	-net	4a\	-to-
.	.	.	.	.	.	.	.	4b\	.
.	.	.	.	.	.	.	.	4cc\	.
4E\yy	-mi-	4E\	-mi-	4c\	-mi-	.	.	4a\	.
!	!	!	!	!LO:LB:g=original	!	!	!	!	!
=219-	=219-	=219	=219	=219	=219	=219	=219	=219	=219
2D,</yy	-net	2D,</	-net	4d\	-net	2f\]	.	2b\	.
.	.	.	.	4c\	.	.	.	.	.
*	*Xij	*	*	*	*	*	*	*	*
4C/yy	Sal-	4C/	Sal-	4e\	Sal-	2r	.	[<2cc\	.
4C/yy	-va-	4C/	-va-	4c\	-va-	.	.	.	.
=220	=220	=220	=220	=220	=220	=220	=220	=220	=220
1Gyy	-to-	1G	-to-	1d	-to-	1g	(et)	2cc\]	.
.	.	.	.	.	.	.	.	2b\	.
=221-	=221-	=221	=221	=221	=221	=221	=221	=221	=221
2C,</yy	-rem	2C,</	-rem	2c\	-rem	4.e\	ger-	1cc,<	-rem
.	.	.	.	.	.	8e\	-mi-	.	.
2c\yy	et	2c\	et	2e\	et	2c/	-net	.	.
!	!	!LO:LB:g=original	!	!	!	!	!	!	!
=222	=222	=222	=222	=222	=222	=222	=222	=222	=222
4.A\yy	ger-	4.A\	ger-	2.c\	ger-	2e\	Sal-	[<1cc	et
8A\yy	-mi-	8A\	-mi-	.	.	.	.	.	.
2E\yy	-net	2E\	-net	.	.	2g\	-va-	.	.
.	.	.	.	4B\	-mi-	.	.	.	.
=223	=223	=223	=223	=223	=223	=223	=223	=223	=223
2.F\yy	Sal-	2.F\	Sal-	2A,</	-net	2.a\	-to-	1cc]	.
.	.	.	.	4c\	Sal-	.	.	.	.
4E\yy	-va-	4E\	-va-	4c\	-va-	4g\	.	.	.
!	!	!	!	!	!	!	!	!LO:LB:g=original	!
=224-	=224-	=224	=224	=224	=224	=224	=224	=224	=224
2D/yy	-to-	2D/	-to-	2d\	-to-	2f\	.	4.b\	ger-
.	.	.	.	.	.	.	.	8b\	-mi-
2C/yy	.	2C/	.	2e\	.	2e\	.	2cc\	-net
=225	=225	=225	=225	=225	=225	=225	=225	=225	=225
2BB/yy	.	2BB/	.	2d\	.	(>4g\	.	4dd\	Sal-
.	.	.	.	.	.	4f\	.	4g/	-va-
2C/yy	.	2C/	.	2c\	.	4e\	.	[<2cc\	-to-
.	.	.	.	.	.	4f\)	.	.	.
=226-	=226-	=226	=226	=226	=226	=226	=226	=226	=226
1GGyy	.	1GG	.	1d	.	1g	.	2cc\]	.
.	.	.	.	.	.	.	.	2b\	.
=227-	=227-	=227	=227	=227	=227	=227	=227	=227	=227
*	*	*	*	*custos	*	*custos	*	*	*
!LO:TX:a:t=P:problem=zakończenie utworu zgodne z innymi głosami	!	!	!	!	!	!	!	!	!
!	!	!	!	!LO:TX:a:t=P:problem=w źródle znak custos użyty jako łamanie strony [lub zakończenie]	!	!LO:TX:a:t=P:problem=w źródle znak custos użyty jako łamanie strony [lub zakończenie]	!	!	!
!LO:N:vis=0	!	!	!	!	!	!	!	!	!
1C;>yy	-rem	1C;>	-rem	1e	-rem	1g	-rem	1cc	-rem
==	==	==	==	==	==	==	==	==	==
*-	*-	*-	*-	*-	*-	*-	*-	*-	*-
!!!system-decoration: [(s1,s2,s3,s4)][(s5)]
!!!RDF**kern: > = above
!!!RDF**kern: < = below
!!!EED: Wojciech Jakubiak-Danek
!!!EEV: 2021-03-04
!!!ENC: Andrzej Kubiczek
!!!END: 2021-02-16
